!!!!SEGMENT: pl-kk--kk-i-7--030_anonim--venit-caeli-nuncius.krn
!!!id: 16xx:820
!!!COM: Anonim
!!!COM-rism: pe30004985
!!!CDT:
!!!CNT:
!!!OTL: Venit caeli nuncius
!!!PDT:
!!!SMS-siglum: PL-Kk
!!!SMS-shelfmark: Kk.I.7
!!!NIFC-rismID: 300258107
!!!URL-scan: http://repozytorium.nifc.pl/skany/pl-kk-nut--i-7
!!!ONB-nifc: UWAGA: C (skan 0018-0019, s.31-32), A (0105, s.30-31), T(0180, s.24-25), B(0270-0271, s.31-33). Następny utwór: Rorate caeli
!!!SMS-variant:
!!!SMS-altvar:
**kern	**text	**text	**kern	**text	**text	**kern	**text	**text	**kern	**text	**text
*part4	*part4	*part4	*part3	*part3	*part3	*part2	*part2	*part2	*part1	*part1	*part1
*staff4	*staff4	*staff4	*staff3	*staff3	*staff3	*staff2	*staff2	*staff2	*staff1	*staff1	*staff1
*I"BASSVS.	*	*	*I"TENOR.	*	*	*I"ALTVS.	*	*	*I"CANTVS.	*	*
*I'B	*	*	*I'T	*	*	*I'A	*	*	*I'S	*	*
*clefF4	*	*	*clefC4	*	*	*clefC4	*	*	*clefC3	*	*
*k[]	*	*	*k[]	*	*	*k[]	*	*	*k[]	*	*
*M2/1	*	*	*M2/1	*	*	*M2/1	*	*	*M2/1	*	*
*met(C|)	*	*	*met(C|)	*	*	*met(C|)	*	*	*met(C|)	*	*
=1-	=1-	=1-	=1-	=1-	=1-	=1-	=1-	=1-	=1-	=1-	=1-
*all\right	*	*	*all\right	*	*	*all\right	*	*	*all\right	*	*
!	!	!	!	!	!	!LO:TX:t=P:problem:kreska pseudotaktowa	!	!	!	!	!
1C/	Ve-	De	1C/	Ve-	De	1G/	Ve-	De	1c\	Ve-	De
1.F\	-nit	ſpon-	1D/	-nit	ſpon-	2F/	-nit	Spon-	2A/	-nit	Spon-
!	!	!	!	!	!	!	!	!	!LO:TX:t=P:problem:kreska pseudotaktowa	!	!
.	.	.	.	.	.	1A\	cae-	sa-	2d/	cae-	.
=2-	=2-	=2-	=2-	=2-	=2-	=2-	=2-	=2-	=2-	=2-	=2-
.	.	.	1F/	cae-	-ſa-	.	.	.	2c/,	-li	-sa-
*	*	*	*	*	*	*2\right	*	*	*2\right	*	*
!LO:TX:t=P:problem:kreska pseudotaktowa	!	!	!	!	!	!LO:TX:t=P:problem:kreska pseudotaktowa	!	!	!	!	!
2D/	cae-	-sa-	.	.	.	2B\	-li	-tam	2.f\	nun-	.
1C/	-li	-tam	1G/	-li	-tam	2.c\	nun-	Jo-	.	.	.
.	.	.	.	.	.	.	.	.	4e\	.	.
!	!	!	!	!	!	!	!	!	!LO:TX:t=P:problem:kreska pseudotaktowa:między nutą a kropką	!	!
.	.	.	.	.	.	.	.	.	2.e\	.	.
!	!	!	!	!	!	!LO:TX:t=P:problem:kreska pseudotaktowa	!	!	!	!	!
.	.	.	.	.	.	4B\	.	.	.	.	.
=3-	=3-	=3-	=3-	=3-	=3-	=3-	=3-	=3-	=3-	=3-	=3-
*	*	*	*lig	*	*	*	*	*	*	*	*
2.D/	nun-	Jo-	1F/	nun-	Jo-	4A/	.	.	.	.	.
!	!	!	!	!	!	!	!	!	!LO:SIC:v:t=custos d	!	!
.	.	.	.	.	.	4G/	.	.	4d\	.	.
!	!	!	!	!	!	!	!	!	!LO:LB:g=original	!	!
.	.	.	.	.	.	1A\	.	.	1d\	.	.
!LO:TX:t=P:problem:kreska pseudotaktowa	!	!	!	!	!	!	!	!	!	!	!
4C/	.	.	.	.	.	.	.	.	.	.	.
4AA/	.	.	1E/	.	.	.	.	.	.	.	.
4BB/	.	.	.	.	.	.	.	.	.	.	.
!	!	!	!	!	!	!	!	!	!LO:TX:t=P:problem:kreska pseudotaktowa	!	!
2C/	.	.	.	.	.	4G/	.	.	2c/	.	.
!	!	!	!	!	!	!LO:TX:t=P:problem:kreska pseudotaktowa	!	!	!	!	!
.	.	.	.	.	.	4A/	.	.	.	.	.
*	*	*	*Xlig	*	*	*	*	*	*	*	*
=4-	=4-	=4-	=4-	=4-	=4-	=4-	=4-	=4-	=4-	=4-	=4-
2GG/	.	.	1D/	-ci-	.	2B-X\	.	.	1d\	.	-tam
!LO:TX:t=P:problem:kreska pseudotaktowa	!	!	!	!	!	!	!	!	!	!	!
2BB/	-ci-	.	.	.	.	2F/	-ci-	.	.	.	.
!	!	!	!	!	!	!LO:TX:t=P:problem:kreska pseudotaktowa	!	!	!	!	!
1AA/,	-us	-ſeph	1C/	.	.	1A\	-us	-ſeph	1e\	-ci-	Jo-
=5-	=5-	=5-	=5-	=5-	=5-	=5-	=5-	=5-	=5-	=5-	=5-
*2\right	*	*	*	*	*	*	*	*	*	*	*
!	!	!	!	!	!	!	!	!	!LO:TX:t=P:problem:kreska pseudotaktowa	!	!
2A\	Ve-	Vi-	1D/	-us	-ſeph	2.F/	ve-	Vi-	1d\	-us	-ſeph
!LO:TX:t=P:problem:kreska pseudotaktowa	!	!	!	!	!	!	!	!	!	!	!
2B-X\	-nit	-ro	.	.	.	.	.	.	.	.	.
!	!	!	!	!	!	!LO:TX:t=P:problem:kreska pseudotaktowa	!	!	!	!	!
.	.	.	.	.	.	4E/	.	.	.	.	.
2.A\	miſ-	iu-	1F/	Ve-	Vi-	2D/	-nit	-ro-	2r	.	.
.	.	.	.	.	.	1d\	miſ-	.	2d\	Ve-	Vi-
8G\L	.	.	.	.	.	.	.	.	.	.	.
8F\J	.	.	.	.	.	.	.	.	.	.	.
=6-	=6-	=6-	=6-	=6-	=6-	=6-	=6-	=6-	=6-	=6-	=6-
1E\	.	.	1G/	-nit	-ro	.	.	.	2e\	-nit	-ro
!	!	!	!	!	!	!LO:TX:t=P:problem:kreska pseudotaktowa	!	!	!	!	!
.	.	.	.	.	.	2c\	.	.	1g\	miſ-	iu-
!	!	!	!LO:SIC:v:t=custos B	!	!	!	!	!	!	!	!
1D\	.	.	1A\	miſ-	iu-	0d\	.	-iuſ-	.	.	.
!	!	!	!	!	!	!	!	!	!LO:TX:t=P:problem:kreska pseudotaktowa	!	!
.	.	.	.	.	.	.	.	.	2f\	.	.
!	!	!	!LO:PB:g=original	!	!	!	!	!	!	!	!
=7-	=7-	=7-	=7-	=7-	=7-	=7-	=7-	=7-	=7-	=7-	=7-
!LO:TX:t=P:problem:kreska pseudotaktowa	!	!	!	!	!	!	!	!	!	!	!
1GG/	-sus	-ſto	1B-X\	-ſur	-ſto	.	.	.	1g\	-sus	-ſto
*	*	*	*lig	*	*	*	*	*	*	*	*
!	!	!	!	!	!	!LO:TX:t=P:problem:kreska pseudotaktowa	!	!	!	!	!
2rC	.	.	1A\	cae-	fi-	1c\	-sus	-to	2e\	.	.
!	!	!	!	!	!	!	!	!	!LO:TX:t=P:problem:kreska pseudotaktowa	!	!
2AA/	coe-	fi-	.	.	.	.	.	.	2c/	cae-	fi-
=8-	=8-	=8-	=8-	=8-	=8-	=8-	=8-	=8-	=8-	=8-	=8-
2BB/	.	.	1G/	.	.	2rd	.	.	2d\	.	.
!LO:TX:t=P:problem:kreska pseudotaktowa	!	!	!	!	!	!	!	!	!	!	!
2C/	.	-de-	.	.	.	1c\	cae-	fi-	2e\	.	.
*	*	*	*Xlig	*	*	*	*	*	*	*	*
1D\	.	.	1F/	.	.	.	.	.	2d\	.	.
.	.	.	.	.	.	2Bny\	-li-	-de-	1f\	.	.
=9-	=9-	=9-	=9-	=9-	=9-	=9-	=9-	=9-	=9-	=9-	=9-
!	!	!	!	!	!	!LO:TX:t=P:problem:kreska pseudotaktowa	!	!	!	!	!
1C/	-li-	.	1G/	-li-	-de-	1c\	.	.	.	.	.
!	!	!	!	!	!	!	!	!	!LO:TX:t=P:problem:kreska pseudotaktowa	!	!
.	.	.	.	.	.	.	.	.	2e\	-li-	-de-
!	!	!	!	!	!	!LO:TX:t=P:problem:kreska pseudotaktowa	!	!	!	!	!
!	!	!	!	!	!	!LO:SIC:v:t=custos A	!	!	!LO:TX:t=P:problem:kreska pseudotaktowa	!	!
2FF/	-tus	-li	1A\	-tus	-li	0c\	-tus	-li	1f\,	-tus	-li
1F\	ad	et	.	.	.	.	.	.	.	.	.
=10-	=10-	=10-	=10-	=10-	=10-	=10-	=10-	=10-	=10-	=10-	=10-
.	.	.	1C/	ad	et	.	.	.	1g\	ad	et
!LO:TX:t=P:problem:kreska pseudotaktowa	!	!	!	!	!	!	!	!	!	!	!
!LO:SIC:v:t=custos F	!	!	!	!	!	!	!	!	!	!	!
!LO:TX:b:t=ria(m)	!	!	!	!	!	!	!	!	!	!	!
2E\	Ma-	De-	.	.	.	.	.	.	.	.	.
!LO:PB:g=original	!	!	!	!	!	!LO:LB:g=original	!	!	!	!	!
2.F\	.	.	1D/	Ma-	De-	1A\	ad	et	2f\	.	De-
.	.	.	.	.	.	.	.	.	2.d\	Ma-	.
4E\	.	.	.	.	.	.	.	.	.	.	.
=11-	=11-	=11-	=11-	=11-	=11-	=11-	=11-	=11-	=11-	=11-	=11-
1D\	-ri-	.	1F/	-ri-	-o	2.A/	Ma-	De-	.	.	.
.	.	.	.	.	.	.	.	.	4e\	-ri-	.
.	.	.	.	.	.	.	.	.	1f\	.	-o
!	!	!	!	!	!	!LO:TX:t=P:problem:kreska pseudotaktowa	!	!	!	!	!
.	.	.	.	.	.	4B\	.	-o	.	.	.
!LO:TX:t=P:problem:kreska pseudotaktowa	!	!	!	!	!	!	!	!	!	!	!
1C/	-am	-o	1G/	-am	a-	1c\	-ri-	mul-	.	.	.
!	!	!	!	!	!	!	!	!	!LO:TX:t=P:problem:kreska pseudotaktowa	!	!
.	.	.	.	.	.	.	.	.	2e\	.	.
=12-	=12-	=12-	=12-	=12-	=12-	=12-	=12-	=12-	=12-	=12-	=12-
*	*	*	*lig	*	*	*	*	*	*	*	*
!	!	!	!	!	!	!LO:TX:t=P:problem:kreska pseudotaktowa	!	!	!	!	!
2.D/	Vir-	a-	1F/	Vir-	-ma-	1A\	-am	-t(um)	1d\	-am	a-
4C/	.	.	.	.	.	.	.	.	.	.	.
4AA/	.	.	1E/	.	.	2rF	.	.	2c/	Vir-	-ma-
4BB/	.	.	.	.	.	.	.	.	.	.	.
!LO:TX:t=P:problem:kreska pseudotaktowa	!	!	!	!	!	!LO:TX:t=P:problem:kreska pseudotaktowa	!	!	!	!	!
2C/	.	.	.	.	.	2D/	Vir-	a-	2A/	.	.
*	*	*	*Xlig	*	*	*	*	*	*	*	*
=13-	=13-	=13-	=13-	=13-	=13-	=13-	=13-	=13-	=13-	=13-	=13-
2BB-X/	.	.	1D/	-gi-	.	2F/	.	-ma-	1B-X/	-gi-	-bi-
2GG/	.	-ma-	.	.	.	2G/	-gi-	.	.	.	.
!LO:N:vis=2	!	!	!	!	!	!	!	!	!LO:N:vis=1	!	!
1AA/	-gi-	-bi-	1C/	.	-bi-	1E/	-nem	-bi-	0.A/	-nem	-li.
=14-	=14-	=14-	=14-	=14-	=14-	=14-	=14-	=14-	=14-	=14-	=14-
!LO:N:vis=2	!	!	!	!	!	!LO:N:vis=1	!	!	!LO:SIC:v:t=custos e	!	!
0D/	-nem	-li.	0Dl/;	-nem	-li.	0D/	.	-li.	.	.	.
!	!	!	!	!	!	!	!	!	!LO:LB:g=original	!	!
=15||	=15||	=15||	=15||	=15||	=15||	=15||	=15||	=15||	=15||	=15||	=15||
*M2/1	*	*	*M2/1	*	*	*M2/1	*	*	*M2/1	*	*
*met(C|)	*	*	*met(C|)	*	*	*met(C|)	*	*	*met(C|)	*	*
!LO:TX:t=P:problem:kreska pseudotaktowa	!	!	!	!	!	!	!	!	!	!	!
1r	.	.	0A\	Con	Ne	2.c\	Con-	Ne	2.e\	Con-	Ne
!	!	!	!	!	!	!LO:TX:t=P:problem:kreska pseudotaktowa	!	!	!	!	!
.	.	.	.	.	.	4B	.	.	4d\	.	.
2.A\	Con	Ne	.	.	.	4A/	.	pa-	2.c/	-ſo-	pa-
.	.	.	.	.	.	4G/	.	.	.	.	.
.	.	.	.	.	.	1A\	.	-ne	.	.	.
!	!	!	!	!	!	!	!	!	!LO:TX:t=P:problem:kreska pseudotaktowa	!	!
4G\	.	.	.	.	.	.	.	.	4B/	.	.
=16-	=16-	=16-	=16-	=16-	=16-	=16-	=16-	=16-	=16-	=16-	=16-
2F\	.	.	1c\	So-	pa-	.	.	.	2A/	-la-	-ne
!LO:TX:t=P:problem:kreska pseudotaktowa	!	!	!	!	!	!LO:TX:t=P:problem:kreska pseudotaktowa	!	!	!	!	!
2E\	ſo-	pa-	.	.	.	2G/	-so-	.	2c/	.	as
2D/	-la-	-ne-	1d\	-la-	-ne-	2F/	-la-	.	2B/	-tur	.
2C/	-tur	as	.	.	.	2E/	.	.	1A/	Vir-	.
=17-	=17-	=17-	=17-	=17-	=17-	=17-	=17-	=17-	=17-	=17-	=17-
!	!	!	!	!	!	!LO:TX:t=P:problem:kreska pseudotaktowa	!	!	!	!	!
1BB/	.	a-	1d\	-tur	-as	1D/	-tur	as	.	.	.
!	!	!	!	!	!	!	!	!	!LO:TX:t=P:problem:kreska pseudotaktowa	!	!
.	.	.	.	.	.	.	.	.	2G/	-gi-	.
*	*	*	*lig	*	*	*	*	*	*	*	*
!LO:TX:t=P:problem:kreska pseudotaktowa	!	!	!	!	!	!	!	!	!	!	!
1AA/	.	-it	1c\	Vir-	a-	2E/	Vir-	a-	2A/	-nem	.
.	.	.	.	.	.	1A\	.	-it	1e\	pa-	a-
=18-	=18-	=18-	=18-	=18-	=18-	=18-	=18-	=18-	=18-	=18-	=18-
2.E\	Vir-	Vir-	1B\	.	.	.	.	.	.	.	.
!	!	!	!	!	!	!LO:TX:t=P:problem:kreska pseudotaktowa	!	!	!LO:TX:t=P:problem:kreska pseudotaktowa	!	!
.	.	.	.	.	.	2G/	-gi-	Vir-	2e\	-ni-	-it
4E\	-gi-	-go	.	.	.	.	.	.	.	.	.
*	*	*	*Xlig	*	*	*	*	*	*	*	*
!	!	!	!	!	!	!	!	!	!LO:TX:t=P:problem:kreska pseudotaktowa	!	!
2AA/	-nem	gra-	1c\	-gi-	-it	2A/	-nem	-go	1e\	-dam	Vir-
!LO:TX:t=P:problem:kreska pseudotaktowa	!	!	!	!	!	!	!	!	!	!	!
2A\	pa-	.	.	.	.	2c\	pa-	gra-	.	.	.
=19-	=19-	=19-	=19-	=19-	=19-	=19-	=19-	=19-	=19-	=19-	=19-
!	!	!	!LO:SIC:v:t=custos c	!	!	!	!	!	!	!	!
2F\	.	-tus	1d\	-nem	Vir-	2A/	-ni-	-t(um)	2f\	Vir-	-go
!	!	!	!	!	!	!LO:TX:t=P:problem:kreska pseudotaktowa	!	!	!	!	!
2G\	.	.	.	.	.	2B\	-dam	es	2d\	.	gra-
!LO:TX:t=P:problem:kreska pseudotaktowa	!	!	!	!	!	!	!	!	!	!	!
!LO:SIC:v:t=custos F	!	!	!LO:LB:g=original	!	!	!LO:SIC:v:t=custos c	!	!	!	!	!
1C/	.	eſt	1c\	pa-	-go	2G/	ob-	ad	1e\	-gi-	-tus
!	!	!	!	!	!	!LO:LB:g=original	!	!	!	!	!
.	.	.	.	.	.	2.c\	-nun-	te	.	.	.
!LO:LB:g=original	!	!	!	!	!	!	!	!	!	!	!
=20-	=20-	=20-	=20-	=20-	=20-	=20-	=20-	=20-	=20-	=20-	=20-
2.F\	.	gra-	1A\	-ni-	gra-	.	.	.	2c/	-nem	est
.	.	.	.	.	.	4B\	.	.	.	.	.
!	!	!	!	!	!	!LO:TX:t=P:problem:kreska pseudotaktowa	!	!	!	!	!
.	.	.	.	.	.	2A/	.	.	1f\	ob	ad
4F\	-ni-	-t(us)	.	.	.	.	.	.	.	.	.
!LO:TX:t=P:problem:kreska pseudotaktowa	!	!	!	!	!	!	!	!	!	!	!
1C/	-dam	est	1c\	-dam	-tur	2G/	.	.	.	.	.
!	!	!	!	!	!	!	!	!	!LO:TX:t=P:problem:kreska pseudotaktowa	!	!
.	.	.	.	.	.	1c\	.	.	2e\	.	.
=21-	=21-	=21-	=21-	=21-	=21-	=21-	=21-	=21-	=21-	=21-	=21-
2r	.	.	1G/	.	est	.	.	.	2.d\	nunc-	te
!	!	!	!	!	!	!LO:TX:t=P:problem:kreska pseudotaktowa	!	!	!	!	!
2G\	ob	ad	.	.	.	2B\	-ci-	.	.	.	.
.	.	.	.	.	.	.	.	.	4e\	.	.
*	*	*	*lig	*	*	*	*	*	*	*	*
2D/	.	.	1F/	ob	ad	2A\	-um	ſer-	2f\	.	.
*	*	*	*	*	*	*	*ij	*	*	*	*
!LO:TX:t=P:problem:kreska pseudotaktowa	!	!	!	!	!	!	!	!	!LO:TX:t=P:problem:kreska pseudotaktowa	!	!
2F\	nun-	te	.	.	.	1d\	ob-	.	2d\	.	.
=22-	=22-	=22-	=22-	=22-	=22-	=22-	=22-	=22-	=22-	=22-	=22-
1E\	.	ſer-	1G/	.	.	.	.	.	4e\	.	.
.	.	.	.	.	.	.	.	.	4f\	.	.
!	!	!	!	!	!	!LO:TX:t=P:problem:kreska pseudotaktowa	!	!	!	!	!
.	.	.	.	.	.	2c\	.	-mo	4g\	.	.
!	!	!	!	!	!	!	!	!	!LO:TX:t=P:problem:kreska pseudotaktowa	!	!
.	.	.	.	.	.	.	.	.	4e\	.	.
*	*	*	*Xlig	*	*	*	*	*ij	*	*	*
2.D/	.	-mo	1F/	nun-	te	2d\	.	gra-	2f\	.	.
.	.	.	.	.	.	1A\	.	.	2.d\	.	.
!LO:TX:t=P:problem:kreska pseudotaktowa	!	!	!	!	!	!	!	!	!	!	!
4C/	.	.	.	.	.	.	.	.	.	.	.
=23-	=23-	=23-	=23-	=23-	=23-	=23-	=23-	=23-	=23-	=23-	=23-
4AA/	.	con-	1E/	.	.	.	.	.	.	.	.
4BB/	.	.	.	.	.	.	.	.	4c/	.	.
!LO:TX:t=P:problem:kreska pseudotaktowa	!	!	!	!	!	!	!	!	!	!	!
2C/	.	-ci-	.	.	.	1G/	.	-t(um)	1c\	.	.
2GG/	-ci-	-pi-	1D/	-ci-	ser-	.	.	.	.	.	.
!	!	!	!	!	!	!LO:TX:t=P:problem:kreska pseudotaktowa	!	!	!LO:TX:t=P:problem:kreska pseudotaktowa	!	!
2GG/	-um	-es	.	.	.	2G/	.	es	2B/	-ci-	ſer-
=24-	=24-	=24-	=24-	=24-	=24-	=24-	=24-	=24-	=24-	=24-	=24-
!	!	!	!	!	!	!	!	!	!LO:SIC:v:t=custos g	!	!
1G\	nun-	con-	1C/	-am	-mo	2.E/	-nun-	ad	2c/	-um	-mo
!	!	!	!	!	!	!	!	!	!LO:PB:g=original	!	!
.	.	.	.	.	.	.	.	.	1g\	nun-	con-
!	!	!	!	!	!	!LO:TX:t=P:problem:kreska pseudotaktowa	!	!	!	!	!
.	.	.	.	.	.	4D/	ci-	te	.	.	.
2E\	.	-ci-	1G/	nun-	con-	2C/	-um	ſer-	.	.	.
*	*	*	*	*	*	*	*Xij	*	*	*	*
!LO:TX:t=P:problem:kreska pseudotaktowa	!	!	!	!	!	!	!	!	!LO:TX:t=P:problem:kreska pseudotaktowa	!	!
2C/	-quam	-pi-	.	.	.	2c\	nun-	.	2e\	.	-ci-
=25-	=25-	=25-	=25-	=25-	=25-	=25-	=25-	=25-	=25-	=25-	=25-
!	!	!	!	!	!	!LO:TX:t=P:problem:kreska pseudotaktowa	!	!	!	!	!
2F\	an-	-es	1F/	-quam	-ci-	1A\	-quam	-mo	2c/	-quam	-pi-
2.D/	-te	fi-	.	.	.	.	.	.	2f\	an-	-es
*	*	*	*lig	*	*	*	*	*Xij	*	*	*
.	.	.	1F/	an-	-pi-	2r	.	.	2d\	.	fi-
4E\	.	.	.	.	.	.	.	.	.	.	.
!LO:TX:t=P:problem:kreska pseudotaktowa	!	!	!	!	!	!	!	!	!LO:TX:t=P:problem:kreska pseudotaktowa	!	!
2F\	au-	.	.	.	.	1d\	an-	con-	2d\	-te	-li-
=26-	=26-	=26-	=26-	=26-	=26-	=26-	=26-	=26-	=26-	=26-	=26-
*	*	*	*	*	*	*	*	*	*	*ij	*
1E\	-di-	li-	1G/	.	.	.	.	.	2e\	nun-	-um
*	*	*	*	*	*	*	*	*	*	*	*ij
!	!	!	!	!	!	!LO:TX:t=P:problem:kreska pseudotaktowa	!	!	!	!	!
.	.	.	.	.	.	2c\	-te	.	1g\	-quam	con-
*	*	*	*Xlig	*	*	*	*	*	*	*	*
!LO:TX:t=P:problem:kreska pseudotaktowa	!	!	!	!	!	!	!	!	!	!	!
1D\	-tu(m)	-um	1A\	-te	-es	2.d\	au-	-ci-	.	.	.
!	!	!	!	!	!	!	!	!	!LO:TX:t=P:problem:kreska pseudotaktowa	!	!
.	.	.	.	.	.	.	.	.	2f\	an-	-ci-
!	!	!	!	!	!	!LO:TX:t=P:problem:kreska pseudotaktowa	!	!	!	!	!
.	.	.	.	.	.	4c\	.	.	.	.	.
=27-	=27-	=27-	=27-	=27-	=27-	=27-	=27-	=27-	=27-	=27-	=27-
1r	.	.	1G/	.	.	2B\	.	-pi-	2e\	.	-pi-
!	!	!	!	!	!	!LO:TX:t=P:problem:kreska pseudotaktowa	!	!	!	!	!
.	.	.	.	.	.	2B\	-di-	-es	2.d\	-te	-es
*	*	*	*	*	*	*	*	*	*	*Xij	*
2r	.	.	1F/	au-	Fi-	1A\	.	fi-	.	.	.
.	.	.	.	.	.	.	.	.	4e\	au-	fi-
*	*ij	*ij	*	*	*	*	*	*	*	*	*
1D\	an-	fi-	.	.	.	.	.	.	4f\	.	.
!	!	!	!	!	!	!	!	!	!LO:TX:t=P:problem:kreska pseudotaktowa	!	!
.	.	.	.	.	.	.	.	.	4d\	.	.
=28-	=28-	=28-	=28-	=28-	=28-	=28-	=28-	=28-	=28-	=28-	=28-
.	.	.	1E/	.	.	1A\	.	-li-	1e\	di-	-li-
!LO:TX:t=P:problem:kreska pseudotaktowa	!	!	!	!	!	!	!	!	!	!	!
2C/	-te	.	.	.	.	.	.	.	.	.	.
!	!	!	!	!	!	!LO:SIC:v:t=custos A	!	!LO:N:vis=1	!	!	!
!	!	!	!	!	!	!LO:N:vis=1	!	!	!	!	!
2BB-X/	au-	.	1D/	.	.	0.F/	-tum	-um	0.d\	-tum.	-um
*	*	*	*	*	*	*	*	*	*	*	*Xij
2GG/	.	.	.	.	.	.	.	.	.	.	.
=29-	=29-	=29-	=29-	=29-	=29-	=29-	=29-	=29-	=29-	=29-	=29-
!LO:N:vis=2	!	!	!	!	!	!	!	!	!	!	!
1AA/	-di-	-li-	1C/	-di-	-li-	.	.	.	.	.	.
!LO:SIC:v:t=custos D	!	!	!	!	!	!	!	!	!	!	!
!LO:N:vis=2	!	!	!	!	!	!	!	!	!	!	!
1D/	-tu(m)	-um	1Dl/	-tur	-um.	.	.	.	.	.	.
*	*Xij	*Xij	*	*	*	*	*	*	*	*	*
!	!	!	!LO:PB:g=original	!	!	!LO:PB:g=original	!	!	!	!	!
=30||	=30||	=30||	=30||	=30||	=30||	=30||	=30||	=30||	=30||	=30||	=30||
*M2/1	*	*	*M2/1	*	*	*M2/1	*	*	*M2/1	*	*
*met(C|)	*	*	*met(C|)	*	*	*met(C|)	*	*	*met(C|)	*	*
2.D/	Fi-	Pec-	1d\	Fi-	Pec-	1.A\	Fi-	Pec-	4d\	Fi-	Pec-
.	.	.	.	.	.	.	.	.	4e\	.	.
.	.	.	.	.	.	.	.	.	4f\	.	.
4E\	.	.	.	.	.	.	.	.	4g\	.	.
2F\	-li-	-ca-	1d\	-li-	-ca-	.	.	.	2a\	.	.
!LO:TX:t=P:problem:kreska pseudotaktowa	!	!	!	!	!	!LO:TX:t=P:problem:kreska pseudotaktowa	!	!	!	!	!
2G\	-um	-to-	.	.	.	2B\	-li-	-ca-	1g\	.	.
=31-	=31-	=31-	=31-	=31-	=31-	=31-	=31-	=31-	=31-	=31-	=31-
*	*	*	*lig	*	*	*	*	*	*	*	*
1A\	al-	-runt	1c\	-um	-to-	1c\	-um	-to-	.	.	.
!	!	!	!	!	!	!	!	!	!LO:TX:t=P:problem:kreska pseudotaktowa	!	!
.	.	.	.	.	.	.	.	.	2f\	-li-	-ca-
1G\	.	.	1B\	.	.	2d\	al-	-rum	2g\	-um	-to-
!	!	!	!	!	!	!LO:TX:t=P:problem:kreska pseudotaktowa:między nutą a kropką	!	!	!	!	!
.	.	.	.	.	.	2.e\	.	Sa-	2g\	al-	-rum
*	*	*	*Xlig	*	*	*	*	*	*	*	*
=32-	=32-	=32-	=32-	=32-	=32-	=32-	=32-	=32-	=32-	=32-	=32-
!LO:TX:t=P:problem:kreska pseudotaktowa	!	!	!	!	!	!	!	!	!	!	!
1A\	-tis-	.	1c\	al-	-rum	.	.	.	1e\	-tiſ-	Sa-
.	.	.	.	.	.	4d\	.	.	.	.	.
!	!	!	!	!	!	!LO:TX:t=P:problem:kreska pseudotaktowa	!	!	!	!	!
.	.	.	.	.	.	2c\	-tiſ-	-lu-	.	.	.
*	*	*	*lig	*	*	*	*	*	*	*	*
!	!	!	!	!	!	!	!	!	!LO:TX:t=P:problem:kreska pseudotaktowa	!	!
1D\	-si-	ſa-	1d\	-tis	Sa-	2B\	.	.	1f\	.	.
.	.	.	.	.	.	1A\	.	.	.	.	.
=33-	=33-	=33-	=33-	=33-	=33-	=33-	=33-	=33-	=33-	=33-	=33-
1E\	.	.	1B\	.	.	.	.	.	1e\	-si-	-lu-
!	!	!	!	!	!	!LO:TX:t=P:problem:kreska pseudotaktowa	!	!	!	!	!
.	.	.	.	.	.	2G/	.	.	.	.	.
*	*	*	*Xlig	*	*	*	*	*	*	*	*
!	!	!	!	!	!	!	!	!	!LO:TX:t=P:problem:kreska pseudotaktowa	!	!
0AA/	-mi	-lu-	1c\	si-	-lu-	2.A/	.	.	1e\	-mi	-tem
.	.	.	.	.	.	8G/L	.	.	.	.	.
!	!	!	!	!	!	!LO:TX:t=P:problem:kreska pseudotaktowa	!	!	!	!	!
.	.	.	.	.	.	8F/J	.	.	.	.	.
=34-	=34-	=34-	=34-	=34-	=34-	=34-	=34-	=34-	=34-	=34-	=34-
.	.	.	1A\	-mi	-tem	2E/	.	.	2r	.	.
.	.	.	.	.	.	2E/	-si-	.	2c/	et	Mi-
!LO:TX:t=P:problem:kreska pseudotaktowa	!	!	!	!	!	!	!	!	!	!	!
1D\	.	-tem	1F/	et	mi-	2D/,	-mi	-tem	2d\	Re-	-ſe-
!	!	!	!	!	!	!	!	!	!LO:SIC:v:t=custos e	!	!
.	.	.	.	.	.	1A\	et	mi-	1f\	-gis	-ro-
!	!	!	!	!	!	!	!	!	!LO:LB:g=original	!	!
=35-	=35-	=35-	=35-	=35-	=35-	=35-	=35-	=35-	=35-	=35-	=35-
2r	.	.	1D/	Re-	-ſe-	.	.	.	.	.	.
!	!	!	!	!	!	!LO:TX:t=P:problem:kreska pseudotaktowa	!	!	!	!	!
2F\	et	Mi-	.	.	.	2B\	Re-	-ſe-	4e\	.	.
!	!	!	!	!	!	!	!	!	!LO:TX:t=P:problem:kreska pseudotaktowa	!	!
.	.	.	.	.	.	.	.	.	4d\	.	.
2G\	.	.	1C/	-gis	-ro-	1c\	.	-ro-	1e\	quam	-rum
!LO:TX:t=P:problem:kreska pseudotaktowa	!	!	!	!	!	!	!	!	!	!	!
2A\	Re-	-ſe-	.	.	.	.	.	.	.	.	.
=36-	=36-	=36-	=36-	=36-	=36-	=36-	=36-	=36-	=36-	=36-	=36-
2F\	.	-ro-	1D/	quam	-rum	2A/	-gem	-rum	2d\	.	.
!	!	!	!	!	!	!LO:TX:t=P:problem:kreska pseudotaktowa	!	!	!	!	!
1A\	-gis	-rum	.	.	.	2d\	.	.	2.f\	ma-	So-
.	.	.	1F/	ma-	So-	2c\	Ma-	So-	.	.	.
.	.	.	.	.	.	.	.	.	4e\	.	.
4G\	quam	.	.	.	.	4B\	.	.	1d\	.	.
!LO:TX:t=P:problem:kreska pseudotaktowa	!	!	!	!	!	!LO:TX:t=P:problem:kreska pseudotaktowa	!	!	!	!	!
4F\	.	.	.	.	.	4A/	.	.	.	.	.
=37-	=37-	=37-	=37-	=37-	=37-	=37-	=37-	=37-	=37-	=37-	=37-
2E\	.	ſo-	1G/	-xi-	-la-	1G/	-xi-	-la	.	.	.
!	!	!	!	!	!	!	!	!	!LO:TX:t=P:problem:kreska pseudotaktowa	!	!
2E\	Ma-	-la-	.	.	.	.	.	.	2c/	-xi-	-la-
2D/	-xi-	-men	1F/	-mi	-men	2A/	-mi	men	2d\	-mi	-men
1BB-X/	-mi	.	.	.	.	2.D/	De-	la-	1d\	De-	La-
=38-	=38-	=38-	=38-	=38-	=38-	=38-	=38-	=38-	=38-	=38-	=38-
.	.	.	1F/	De-	lap-	.	.	.	.	.	.
.	.	.	.	.	.	4E/	.	.	.	.	.
!LO:TX:t=P:problem:kreska pseudotaktowa	!	!	!	!	!	!	!	!	!	!	!
2AA/	De-	lap-	.	.	.	1F/	.	.	2c/	.	.
1GG/	-us	-so-	1G/	.	-so-	.	.	.	1B-X/	-um	-pso-
!	!	!	!	!	!	!LO:TX:t=P:problem:kreska pseudotaktowa	!	!	!	!	!
.	.	.	.	.	.	2E/	.	.	.	.	.
=39-	=39-	=39-	=39-	=39-	=39-	=39-	=39-	=39-	=39-	=39-	=39-
4FF/	et	-rum	1A\	-um	-rum	2F/	-um	pso-	4A/	et	-rum
4GG/	.	.	.	.	.	.	.	.	4Bny/	.	.
4AA/	.	.	.	.	.	1c\	De-	-rum	4c/	Ho-	re-
!LO:TX:t=P:problem:kreska pseudotaktowa	!	!	!	!	!	!	!	!	!LO:TX:t=P:problem:kreska pseudotaktowa	!	!
4BBny/	.	.	.	.	.	.	.	.	4d\	.	.
2C/	Ho-	re-	1G/	et	re-	.	.	.	4e\	.	.
.	.	.	.	.	.	.	.	.	4f\	.	.
4GG/	.	.	.	.	.	1B-X\	um	Re-	4g\	.	.
!	!	!	!	!	!	!	!	!	!LO:TX:t=P:problem:kreska pseudotaktowa	!	!
4AA/	.	.	.	.	.	.	.	.	4f\	.	.
=40-	=40-	=40-	=40-	=40-	=40-	=40-	=40-	=40-	=40-	=40-	=40-
*	*	*	*lig	*	*	*	*	*	*	*	*
4BB-X/	.	.	1F/	Ho-	-me-	.	.	.	4d\	.	.
4C/	.	.	.	.	.	.	.	.	4e\	.	.
!	!	!	!	!	!	!LO:SIC:v:t=custos G	!	!	!	!	!
4D/	.	.	.	.	.	1A\	et	-me-	4f\	.	.
!LO:TX:t=P:problem:kreska pseudotaktowa	!	!	!	!	!	!	!	!	!	!	!
4C/	.	.	.	.	.	.	.	.	4e\	.	.
4AA/	.	.	1E/	.	.	.	.	.	4c\	.	.
!LO:SIC:v:t=custos C	!	!	!	!	!	!	!	!	!	!	!
4BBny/	.	.	.	.	.	.	.	.	4d\	.	.
!LO:LB:g=original	!	!	!	!	!	!LO:LB:g=original	!	!	!	!	!
!	!	!	!	!	!	!LO:TX:t=P:problem:kreska pseudotaktowa	!	!	!	!	!
2C/	.	-me-	.	.	.	2G/	.	.	2e\	-mi-	-me-
*	*	*	*Xlig	*	*	*	*	*	*	*	*
=41-	=41-	=41-	=41-	=41-	=41-	=41-	=41-	=41-	=41-	=41-	=41-
!LO:TX:t=P:problem:kreska pseudotaktowa	!	!	!	!	!	!	!	!	!LO:N:vis=1	!	!
1AA/	-mi-	-di-	1D/	-mi-	-di-	2F/	Ho-	.	00d\	-nem	-dium
.	.	.	.	.	.	2G/	.	.	.	.	.
!LO:N:vis=1	!	!	!	!	!	!LO:N:vis=2	!	!	!	!	!
0.D\	-nem.	-um	1C/	.	.	1E/	-mi-	-di-	.	.	.
=42-	=42-	=42-	=42-	=42-	=42-	=42-	=42-	=42-	=42-	=42-	=42-
!	!	!	!	!	!	!LO:N:vis=2	!	!	!	!	!
.	.	.	0Dl/;	-ni	-um.	0D/;	-nem.	-um.	.	.	.
!	!	!	!LO:LB:g=original	!	!	!	!	!	!	!	!
=43||	=43||	=43||	=43||	=43||	=43||	=43||	=43||	=43||	=43||	=43||	=43||
*M2/1	*	*	*M2/1	*	*	*M2/1	*	*	*M2/1	*	*
*met(C|)	*	*	*met(C|)	*	*	*met(C|)	*	*	*met(C|)	*	*
1.D\	Et	Ma-	1D/	Et	Ma-	4A/	Et	Ma-	2.d\	Et	Ma-
.	.	.	.	.	.	4G/	.	.	.	.	.
.	.	.	.	.	.	4F/	.	.	.	.	.
!	!	!	!	!	!	!LO:TX:t=P:problem:kreska pseudotaktowa	!	!	!	!	!
.	.	.	.	.	.	4E/	.	.	4e\	.	.
*	*	*	*lig	*	*	*	*	*	*	*	*
.	.	.	1A\	lux	-ter	2D/	.	.	2f\	.	.
!LO:TX:t=P:problem:kreska pseudotaktowa	!	!	!	!	!	!LO:TX:t=P:problem:kreska pseudotaktowa	!	!	!LO:TX:t=P:problem:kreska pseudotaktowa	!	!
2C/	.	.	.	.	.	2E/	.	.	2e\	lux	ter
=44-	=44-	=44-	=44-	=44-	=44-	=44-	=44-	=44-	=44-	=44-	=44-
2BB-X/	lux	-ter	1B-X\	.	.	2F/	.	.	1d\	.	e-
2GG/	Be-	e-	.	.	.	2.G/	.	.	.	.	.
*	*	*	*Xlig	*	*	*	*	*	*	*	*
*	*	*	*lig	*	*	*	*	*	*	*	*
2AA/	-a-	-ris	1A\	be-	e-	.	.	.	2c/	be-	-ris
.	.	.	.	.	.	4F/	.	.	.	.	.
2FF/	-tiſ-	in-	.	.	.	1F/	.	.	2.c/	-a-	in-
=45-	=45-	=45-	=45-	=45-	=45-	=45-	=45-	=45-	=45-	=45-	=45-
1C/	-si-	-tac-	1G/	.	.	.	.	.	.	.	.
.	.	.	.	.	.	.	.	.	4B/	.	.
!	!	!	!	!	!	!LO:TX:t=P:problem:kreska pseudotaktowa	!	!	!	!	!
.	.	.	.	.	.	2E/	.	.	4A/	.	.
!	!	!	!	!	!	!	!	!	!LO:TX:t=P:problem:kreska pseudotaktowa	!	!
!	!	!	!	!	!	!	!	!	!LO:SIC:v:t=custos F	!	!
.	.	.	.	.	.	.	.	.	4G/	.	.
*	*	*	*Xlig	*	*	*	*	*	*	*	*
!LO:TX:t=P:problem:kreska pseudotaktowa	!	!	!	!	!	!	!	!	!LO:LB:g=original	!	!
*	*	*	*lig	*	*	*	*	*	*	*	*
1FF/	-ma	-ta	1A\	-a-	-ris	2F/	lux	-ter	2F/	.	.
.	.	.	.	.	.	2F/	be-	e-	1f\	-tiſ-	-tac-
=46-	=46-	=46-	=46-	=46-	=46-	=46-	=46-	=46-	=46-	=46-	=46-
!	!	!	!	!	!	!LO:TX:t=P:problem:kreska pseudotaktowa	!	!	!	!	!
1r	.	.	1Bn\	.	.	1G/	-a-	-ris	.	.	.
.	.	.	.	.	.	.	.	.	2e\	-si-	.
*	*	*	*Xlig	*	*	*	*	*	*	*	*
*	*	*	*lig	*	*	*	*	*	*	*	*
!	!	!	!	!	!	!	!	!	!LO:TX:t=P:problem:kreska pseudotaktowa	!	!
2r	.	.	1c\	-tis-	in	4F/	.	in-	1f\	-ma	ta
.	.	.	.	.	.	4G/	.	.	.	.	.
!LO:TX:t=P:problem:kreska pseudotaktowa	!	!	!	!	!	!	!	!	!	!	!
2F\	Be-	Cae-	.	.	.	4A/	.	.	.	.	.
!	!	!	!	!	!	!LO:TX:t=P:problem:kreska pseudotaktowa	!	!	!	!	!
.	.	.	.	.	.	4B\	.	.	.	.	.
=47-	=47-	=47-	=47-	=47-	=47-	=47-	=47-	=47-	=47-	=47-	=47-
2.F\	-a-	-li	1A\	.	.	2c\	.	.	2r	.	.
.	.	.	.	.	.	2.d\	.	.	2.f\	tu-	cae-
4E\	.	.	.	.	.	.	.	.	.	.	.
*	*	*	*Xlig	*	*	*	*	*	*	*	*
2D\	-tiſ-	por-	1B-X\	-si-	tac-	.	.	.	.	.	.
.	.	.	.	.	.	4e\	.	.	4e\	.	.
!LO:TX:t=P:problem:kreska pseudotaktowa	!	!	!	!	!	!	!	!	!LO:TX:t=P:problem:kreska pseudotaktowa	!	!
2BBny/	-si-	-ta	.	.	.	1f\	-tiſ-	-tac-	2d\	.	.
=48-	=48-	=48-	=48-	=48-	=48-	=48-	=48-	=48-	=48-	=48-	=48-
1C/	-ma	i-	1G/	-ma	-ta	.	.	.	1c\	.	.
!	!	!	!	!	!	!LO:TX:t=P:problem:kreska pseudotaktowa	!	!	!	!	!
.	.	.	.	.	.	2e\	-si-	.	.	.	.
2FF/	.	-am	1A\	Tu-	Cae-	2f\	-ma	-ta	2c/	-i	-li
!	!	!	!	!	!	!	!	!	!LO:TX:t=P:problem:kreska pseudotaktowa	!	!
2F\	tu-	fac-	.	.	.	1F/	tu-	cae-	2c/	cor-	por-
=49-	=49-	=49-	=49-	=49-	=49-	=49-	=49-	=49-	=49-	=49-	=49-
2D\	-i	-ta	1B-X\	-i	-li	.	.	.	2f\	.	.
*	*	*ij	*	*	*	*	*	*	*	*	*
!	!	!	!	!	!	!LO:TX:t=P:problem:kreska pseudotaktowa	!	!	!	!	!
2E\	cor-	i-	.	.	.	2G/	.	.	4e\	.	.
.	.	.	.	.	.	.	.	.	4d\	.	.
*lig	*	*	*lig	*	*	*	*	*	*	*	*
1F\	-dis-	-am	1A\	cor-	po-	2A/	-i	-li	2c/	.	-ta
!	!	!	!	!	!	!LO:SIC:v:t=custos G	!	!	!	!	!
.	.	.	.	.	.	2F/	cor-	por-	1d\	-dis	i-
!	!	!	!	!	!	!LO:LB:g=original	!	!	!	!	!
=50-	=50-	=50-	=50-	=50-	=50-	=50-	=50-	=50-	=50-	=50-	=50-
!LO:TX:t=P:problem:kreska pseudotaktowa	!	!	!	!	!	!	!	!	!	!	!
1E\	.	.	1G/	.	.	1G/	.	.	.	.	.
!	!	!	!	!	!	!	!	!	!LO:TX:t=P:problem:kreska pseudotaktowa	!	!
.	.	.	.	.	.	.	.	.	2c/	in-	-am
*Xlig	*	*	*Xlig	*	*	*	*	*	*	*	*
2D/	-in-	fac-	1A\	-dis	-ta	2F/	-dis	-ta	2d\	-ti-	fa-
2C/	.	.	.	.	.	1c\	in-	i	2e\	.	.
=51-	=51-	=51-	=51-	=51-	=51-	=51-	=51-	=51-	=51-	=51-	=51-
1D\	-ti-	.	1F/	in-	i-	.	.	.	2d\	.	.
!	!	!	!	!	!	!LO:TX:t=P:problem:kreska pseudotaktowa	!	!	!	!	!
.	.	.	.	.	.	2B\	-ti-	am	1f\	.	.
!LO:TX:t=P:problem:kreska pseudotaktowa	!	!	!	!	!	!	!	!	!	!	!
1C/	-ma	-ta	1G/	-ti-	-am	2.c\	-ma	fa-	.	.	.
*	*	*Xij	*	*	*	*	*	*	*	*	*
!	!	!	!	!	!	!	!	!	!LO:TX:t=P:problem:kreska pseudotaktowa	!	!
.	.	.	.	.	.	.	.	.	2e\	-ma	-cta
.	.	.	.	.	.	4B\	.	.	.	.	.
=52-	=52-	=52-	=52-	=52-	=52-	=52-	=52-	=52-	=52-	=52-	=52-
2FF/	o-	Fun-	1F/	-ma	fac-	2A/	.	.	2f\	.	.
!	!	!	!	!	!	!LO:TX:t=P:problem:kreska pseudotaktowa	!	!	!	!	!
2BB/	-bum-	-dens	.	.	.	2B-X\	o-	-cta	2d\	.	.
2AA/	-bra-	Re-	1F/	o-	-ta	2c\	-bum-	fun-	2c/	.	.
!LO:TX:t=P:problem:kreska pseudotaktowa	!	!	!	!	!	!	!	!	!	!	!
2BB/	.	.	.	.	.	1Bny\	-bra-	.	1d\	o-	fun-
=53-	=53-	=53-	=53-	=53-	=53-	=53-	=53-	=53-	=53-	=53-	=53-
2GG/	-bit	-gem	1G/	-bum-	fun-	.	.	.	.	.	.
*	*ij	*ij	*	*	*	*	*	*	*	*	*
2C/	o-	Fun-	.	.	.	1c\	.	.	1e\	-bum-	.
2AA/	-bum-	-dens	1A\	-bra-	-dens	.	.	.	.	.	.
!LO:TX:t=P:problem:kreska pseudotaktowa	!	!	!	!	!	!LO:TX:t=P:problem:kreska pseudotaktowa	!	!	!LO:TX:t=P:problem:kreska pseudotaktowa	!	!
2D/	-bra-	Re-	.	.	.	2d\	-bit	-dens	2f\	-bra-	-dens
=54-	=54-	=54-	=54-	=54-	=54-	=54-	=54-	=54-	=54-	=54-	=54-
2GG/	.	.	1G/	-bit	Re-	2B\	o-	Re-	2d\	-bit	Re-
1C/	-bit	-gem	.	.	.	2c\	-bum-	.	1e\	Vis-	-gem-
*	*Xij	*Xij	*	*	*	*	*	*	*	*	*
!	!	!	!	!	!	!LO:TX:t=P:problem:kreska pseudotaktowa	!	!	!	!	!
.	.	.	1c\	gra-	-gem	1G/	-bra-	.	.	.	.
4BB/	Vi-	glo-	.	.	.	.	.	.	4d\	.	.
!LO:TX:t=P:problem:kreska pseudotaktowa	!	!	!	!	!	!	!	!	!LO:TX:t=P:problem:kreska pseudotaktowa	!	!
4AA/	.	.	.	.	.	.	.	.	4c/	.	.
=55-	=55-	=55-	=55-	=55-	=55-	=55-	=55-	=55-	=55-	=55-	=55-
*	*	*	*lig	*	*	*	*	*	*	*	*
4GG/	.	.	1Bn\	.	glo-	1G/	-bit	-gem	2d\	.	-glo-
4AA/	.	.	.	.	.	.	.	.	.	.	.
4BB/	.	.	.	.	.	.	.	.	2e\	-ſce-	-ri-
4C/	.	.	.	.	.	.	.	.	.	.	.
!LO:N:vis=2	!	!	!	!	!	!	!	!	!	!	!
1D/	.	.	1A\	.	.	2F/	Viſ-	glo-	[1c#l\;	-ra.	-a.
.	.	.	.	.	.	2E/	-ce-	-ri-	.	.	.
*	*	*	*Xlig	*	*	*	*	*	*	*	*
=56-	=56-	=56-	=56-	=56-	=56-	=56-	=56-	=56-	=56-	=56-	=56-
!LO:TX:t=P:problem:kreska pseudotaktowa	!	!	!	!	!	!	!	!	!	!	!
!LO:N:vis=2	!	!	!	!	!	!LO:N:vis=1	!	!	!	!	!
1BB/	-ſce-	-ri-	1G/	-ti-	-ri-	0D/	-ra.	-ae	0c#]	.	.
1AA/	-ra	-ae.	1Al\;	-a.	-ae.	.	.	.	.	.	.
!	!	!	!LO:LB:g=original	!	!	!	!	!	!LO:LB:g=original	!	!
=57||	=57||	=57||	=57||	=57||	=57||	=57||	=57||	=57||	=57||	=57||	=57||
*M2/1	*	*	*M2/1	*	*	*M2/1	*	*	*M2/1	*	*
*met(C|)	*	*	*met(C|)	*	*	*met(C|)	*	*	*met(C|)	*	*
!	!	!	!	!	!	!	!	!	!LO:TX:t=P:problem:kreska pseudotaktowa	!	!
2.D/	Quem	Vt	1d\	Quem	Vt	2.A/	Quem	Vt	1r	.	.
!	!	!	!	!	!	!LO:TX:t=P:problem:kreska pseudotaktowa	!	!	!	!	!
4E\	.	.	.	.	.	4G/	.	.	.	.	.
2F\	.	.	1d\	no-	pur-	4A/	.	pur-	2r	.	.
.	.	.	.	.	.	4D/	.	.	.	.	.
!LO:TX:t=P:problem:kreska pseudotaktowa	!	!	!	!	!	!	!	!	!	!	!
2G\	.	pur-	.	.	.	1d\	.	.	2d\	Quem	Ut
=58-	=58-	=58-	=58-	=58-	=58-	=58-	=58-	=58-	=58-	=58-	=58-
1E\	no-	-ga-	1G/	-bis	-ga-	.	.	.	1g\	.	pur-
!	!	!	!	!	!	!LO:TX:t=P:problem:kreska pseudotaktowa	!	!	!	!	!
.	.	.	.	.	.	2c\	no-	-ga-	.	.	.
!LO:TX:t=P:problem:kreska pseudotaktowa	!	!	!	!	!	!LO:TX:t=P:problem:kreska pseudotaktowa	!	!	!	!	!
1D\	-bis	-tis	1A\	con-	-tis	1d\	-bis	-tis	2f\	no-	-ga-
!	!	!	!	!	!	!	!	!	!LO:TX:t=P:problem:kreska pseudotaktowa	!	!
.	.	.	.	.	.	.	.	.	2d\	-bis	-tis
=59-	=59-	=59-	=59-	=59-	=59-	=59-	=59-	=59-	=59-	=59-	=59-
2r	.	.	1c\	-ci-	Sor-	2A/	con-	Sor-	2e\	con-	sor-
(<2C/	con-	ſor-	.	.	.	1A\	-ci-	-di-	2e\	-ci-	-di-
2D\)	-ci-	.	1Bn\	-li-	-di-	.	.	.	2f\	-li-	-bus
!LO:TX:t=P:problem:kreska pseudotaktowa	!	!	!	!	!	!LO:TX:t=P:problem:kreska pseudotaktowa	!	!	!	!	!
!	!	!	!	!	!	!LO:SIC:v:t=custos A	!	!	!	!	!
2E\	-li-	-di-	.	.	.	2G/	-li-	.	4e\	.	.
!	!	!	!	!	!	!	!	!	!LO:TX:t=P:problem:kreska pseudotaktowa	!	!
.	.	.	.	.	.	.	.	.	4d\	.	.
!	!	!	!	!	!	!LO:LB:g=original	!	!	!	!	!
=60-	=60-	=60-	=60-	=60-	=60-	=60-	=60-	=60-	=60-	=60-	=60-
2F\	-a	-bu(s)	1A\	-a	-bus	2A/	-a	-bus	2c/	-a	.
1D\	gra-	fru-	.	.	.	4F/	gra-	fru-	1f\	gra-	fru-
!	!	!	!	!	!	!LO:TX:t=P:problem:kreska pseudotaktowa	!	!	!	!	!
.	.	.	.	.	.	4G/	.	.	.	.	.
.	.	.	1A\	gra-	fru-	4A/	.	.	.	.	.
.	.	.	.	.	.	4B\	.	.	.	.	.
!LO:TX:t=P:problem:kreska pseudotaktowa	!	!	!	!	!	!	!	!	!	!	!
!LO:SIC:v:t=custos BB	!	!	!	!	!	!LO:TX:t=P:problem:kreska pseudotaktowa	!	!	!LO:TX:t=P:problem:kreska pseudotaktowa	!	!
2C/	-ti-	-a-	.	.	.	2c\	.	.	2e\	-ti-	-a-
!LO:PB:g=original	!	!	!	!	!	!	!	!	!	!	!
=61-	=61-	=61-	=61-	=61-	=61-	=61-	=61-	=61-	=61-	=61-	=61-
2BB/	-a-	-mur	1B-X\	-ti-	-ae-	1d\	-ti-	.	2d\	-am	-mur
!LO:TX:t=P:problem:kreska pseudotaktowa	!	!	!	!	!	!	!	!	!	!	!
2GG/	-m(us)	cae-	.	.	.	.	.	.	2.g\	que	cae-
*	*	*	*lig	*	*	*	*	*	*	*	*
!	!	!	!	!	!	!LO:TX:t=P:problem:kreska pseudotaktowa	!	!	!	!	!
2AA/	im-	-le-	1A\	-a-	-mur	1c\	-a-	-a-	.	.	.
.	.	.	.	.	.	.	.	.	4f\	.	.
2FF/	-pe-	-ſti-	.	.	.	.	.	.	1f\	im-	-le-
=62-	=62-	=62-	=62-	=62-	=62-	=62-	=62-	=62-	=62-	=62-	=62-
!LO:TX:t=P:problem:kreska pseudotaktowa	!	!	!	!	!	!	!	!	!	!	!
1C/	-tra	-bus	1G/	.	.	1c\	-m(us)	-mur	.	.	.
!	!	!	!	!	!	!	!	!	!LO:TX:t=P:problem:kreska pseudotaktowa	!	!
.	.	.	.	.	.	.	.	.	2e\	.	.
*	*	*	*Xlig	*	*	*	*	*	*	*	*
2rC	.	.	1A\	-m(us)	cae-	2.c\	im-	cae-	2f\	-pet-	-ſti-
2AA/	im	cae-	.	.	.	.	.	.	2e\	.	-bus
!	!	!	!	!	!	!LO:TX:t=P:problem:kreska pseudotaktowa	!	!	!	!	!
.	.	.	.	.	.	4B\	.	.	.	.	.
=63-	=63-	=63-	=63-	=63-	=63-	=63-	=63-	=63-	=63-	=63-	=63-
2D/	.	.	1F/	im-	-leſ-	4A/	.	.	2d\	-ra	cae-
.	.	.	.	.	.	4F/	.	.	.	.	.
1BB/	pe-	-le-	.	.	.	1f\	.	leſ-	1d\	im-	-le-
.	.	.	1G/	-pe-	-ti-	.	.	.	.	.	.
!LO:TX:t=P:problem:kreska pseudotaktowa	!	!	!	!	!	!LO:TX:t=P:problem:kreska pseudotaktowa	!	!	!LO:TX:t=P:problem:kreska pseudotaktowa	!	!
2C/	.	-sti-	.	.	.	2e\	-pe-	-ti-	2c/	-pe-	-ſti-
=64-	=64-	=64-	=64-	=64-	=64-	=64-	=64-	=64-	=64-	=64-	=64-
!LO:TX:t=P:problem:kreska pseudotaktowa	!	!	!	!	!	!LO:TX:t=P:problem:kreska pseudotaktowa	!	!	!	!	!
1FF/	-tra	-bus	1F/,	-tra	-bus	0f\	-tra	-bus	2A/	-tra	-bus
.	.	.	.	.	.	.	.	.	1c\	mi-	in
!LO:TX:a:t=3	!	!	!	!	!	!	!	!	!	!	!
0r	.	.	1F/	mi-	in	.	.	.	.	.	.
.	.	.	.	.	.	.	.	.	1d\	-ſe-	cae-
=65-	=65-	=65-	=65-	=65-	=65-	=65-	=65-	=65-	=65-	=65-	=65-
.	.	.	1G/	-ſe-	Cae-	1B-X\	mi-	in	.	.	.
.	.	.	.	.	.	.	.	.	1e\	-ris	-le-
!LO:TX:t=P:problem:kreska pseudotaktowa	!	!	!	!	!	!	!	!	!	!	!
1r	.	.	1A\	-ris	-leſ-	1c\	-ſe-	cae-	.	.	.
!	!	!	!	!	!	!	!	!	!LO:TX:t=P:problem:kreska pseudotaktowa	!	!
.	.	.	.	.	.	.	.	.	2A/	mor-	-ſti
=66-	=66-	=66-	=66-	=66-	=66-	=66-	=66-	=66-	=66-	=66-	=66-
!	!	!	!	!	!	!LO:TX:t=P:problem:kreska pseudotaktowa	!	!	!	!	!
1BB/	Mi-	in	1D/	mot-	-ti	1d\	-rus	-le-	1f\	-ta-	Cu-
*	*	*	*lig	*	*	*	*	*	*	*	*
1C/	-ſe-	cae-	1E/	-ta	cu-	2G/	mor-	-ſti	1e\	-li-	-ri-
.	.	.	.	.	.	1A\	-ta-	.	.	.	.
=67-	=67-	=67-	=67-	=67-	=67-	=67-	=67-	=67-	=67-	=67-	=67-
!LO:TX:t=P:problem:kreska pseudotaktowa	!	!	!	!	!	!	!	!	!LO:TX:t=P:problem:kreska pseudotaktowa	!	!
!	!	!	!	!	!	!	!	!	!LO:SIC:v:t=custos d	!	!
1D\	-ris	-le-	1F/	.	.	.	.	.	0d\	-bus	-a
.	.	.	.	.	.	2.Bny\	.	Cu-	.	.	.
*	*	*	*Xlig	*	*	*	*	*	*	*	*
1GG/	mor-	-ſti	1G/	.	-ria.	.	.	.	.	.	.
.	.	.	.	.	.	4c\	.	.	.	.	.
.	.	.	.	.	.	4d\	.	.	.	.	.
!	!	!	!	!	!	!LO:TX:t=P:problem:kreska pseudotaktowa	!	!	!	!	!
.	.	.	.	.	.	4B\	.	.	.	.	.
!	!	!	!	!	!	!	!	!	!LO:LB:g=original	!	!
=68-	=68-	=68-	=68-	=68-	=68-	=68-	=68-	=68-	=68-	=68-	=68-
*	*	*	*lig	*	*	*	*	*	*	*	*
2AA/	ta-	Cu-	1F/	li-	Al-	2c\	.	.	2r	.	.
!LO:TX:t=P:problem:kreska pseudotaktowa	!	!	!	!	!	!LO:TX:t=P:problem:kreska pseudotaktowa	!	!	!LO:TX:t=P:problem:kreska pseudotaktowa	!	!
2BB/	.	.	.	.	.	2B\	.	.	2d\	mi-	in
1C/	.	.	1E/	.	.	2G/	.	.	1e\	-se-	Cae-
.	.	.	.	.	.	2c\	.	.	.	.	.
*	*	*	*Xlig	*	*	*	*	*	*	*	*
=69-	=69-	=69-	=69-	=69-	=69-	=69-	=69-	=69-	=69-	=69-	=69-
*	*	*	*lig	*	*	*	*	*	*	*	*
2BB/	.	.	1D/	-bur.	-le-	2d\	.	.	2f\	-ris	-le-
!	!	!	!	!	!	!LO:TX:t=P:problem:kreska pseudotaktowa	!	!	!	!	!
!	!	!	!	!	!	!LO:SIC:v:t=custos A	!	!	!LO:TX:t=P:problem:kreska pseudotaktowa	!	!
2GG/	.	.	.	.	.	2B\	.	.	2g\	mor-	-sti
!	!	!	!	!	!	!LO:LB:g=original	!	!	!	!	!
1AA/	-li-	-ri-	1C/	.	-lu-	1A\	-li-	-ri-	1e\	-ta-	Cu-
*	*	*	*Xlig	*	*	*	*	*	*	*	*
=70-	=70-	=70-	=70-	=70-	=70-	=70-	=70-	=70-	=70-	=70-	=70-
!LO:TX:t=P:problem:kreska pseudotaktowa	!	!	!	!	!	!LO:TX:t=P:problem:kreska pseudotaktowa	!	!	!	!	!
1D\	-bus	-a	[0Dl/	.	-ia	1A\	-bur	-a.	2e\	-li-	-ri-
!	!	!	!	!	!	!	!	!	!LO:TX:t=P:problem:kreska pseudotaktowa	!	!
.	.	.	.	.	.	.	.	.	2d\	-bus	-a.
1r	.	.	.	.	.	2rF	.	.	2.f\	Al-	.
!	!	!	!	!	!	!LO:TX:t=P:problem:kreska pseudotaktowa	!	!	!	!	!
.	.	.	.	.	.	2F/	Al-	.	.	.	.
.	.	.	.	.	.	.	.	.	4e\	.	.
=71-	=71-	=71-	=71-	=71-	=71-	=71-	=71-	=71-	=71-	=71-	=71-
2GG/	Al-	.	0D_	.	.	2.B-X\	-le-	.	2.d\	-le-	.
!LO:TX:t=P:problem:kreska pseudotaktowa:między nutą a kropką	!	!	!	!	!	!	!	!	!	!	!
2.BB/	-le-	.	.	.	.	.	.	.	.	.	.
!	!	!	!	!	!	!LO:TX:t=P:problem:kreska pseudotaktowa	!	!	!LO:TX:t=P:problem:kreska pseudotaktowa	!	!
.	.	.	.	.	.	4A/	.	.	4c/	.	.
.	.	.	.	.	.	2G/	.	.	2B/	.	.
4AA/	-lu-	.	.	.	.	.	.	.	.	.	.
!LO:TX:a:t=P:problem:skreślona cauda	!	!	!	!	!	!	!	!	!	!	!
1GG/	-ia	.	.	.	.	2F/	.	.	2.d\	.	.
=72-	=72-	=72-	=72-	=72-	=72-	=72-	=72-	=72-	=72-	=72-	=72-
.	.	.	0D_	.	.	2G/	.	.	.	.	.
.	.	.	.	.	.	.	.	.	4c/	.	.
!LO:TX:t=P:problem:kreska pseudotaktowa	!	!	!	!	!	!LO:TX:t=P:problem:kreska pseudotaktowa	!	!	!LO:TX:t=P:problem:kreska pseudotaktowa	!	!
2FF/	.	.	.	.	.	2A/	.	.	2A/	-lu-	.
1GG/	.	.	.	.	.	2D/	.	.	1B/	-ia	.
.	.	.	.	.	.	1G/	.	.	.	.	.
=73-	=73-	=73-	=73-	=73-	=73-	=73-	=73-	=73-	=73-	=73-	=73-
0FFl/	.	.	0D]	.	.	.	.	.	0Bl/	.	.
!	!	!	!	!	!	!LO:TX:a:t=P:problem:# above	!	!	!	!	!
.	.	.	.	.	.	4F#/	-lu-	.	.	.	.
!	!	!	!	!	!	!LO:TX:b:t=P:problem:# below	!	!	!	!	!
.	.	.	.	.	.	4E#/	.	.	.	.	.
!	!	!	!	!	!	!LO:N:vis=0.	!	!	!LO:TX:b:t=A.M.D.G.\nV.M.G.D.H. 1663\nDec.	!	!
.	.	.	.	.	.	1F#l/;	-ia	.	.	.	.
==	==	==	==	==	==	==	==	==	==	==	==
*-	*-	*-	*-	*-	*-	*-	*-	*-	*-	*-	*-
!!!system-decoration: [s1,s2,s3,s4]
!!!RDF**kern: < = below
!!!RDF**kern: l = terminal long
!!!ENC: Marta Lawrence
!!!END: 2021-03-10
!!!ENC: Berenika Jozajtis
!!!END: 2021-02-26
